X:1
T:Duke of Norfolk, or Paul's Steeple
T:Duke of Norfolk, or Paul's Steeple
T:Anonymous
T:by Mutopia-2009/02/22-1630 - public domain
T:by Mutopia-2009/02/22-1630 - public domain
C:Anonymous
Z:by Mutopia-2009/02/22-1630 - public domain
%%score 1 2
L:1/8
Q:1/4=110
M:2/2
K:F
V:1 treble nm="Violino"
V:2 bass transpose=-12 nm="Basso ostinato" snm="Basso ostinato"
V:1
 z e | f>e de f2 f>g | eccc c3 c | d^cde f2 e>d | aaaa a3 g | ffff f3 f | gggg g3 g | %7
 a2 g>f ed d^c | dDFA d2 :: a>g | fe/f/ de fagf | ed/e/ cd egfe | fe/f/ de f2 g2 | %13
 ag/f/ e/f/d/e/ ^c2 A2 | f2 c2 F2 a2 | g2 G2 E2 g2 | af ge fd e^c | d2 D2 d3 :: e | %19
 A f/e/ d^c dfed | ce/d/ c=B cedc | dd/e/ fe d2 e2 | ^c2 E2 A,2 c2 | ce/d/ fc/B/ AG/A/ F2 | %24
 cc/d/ ee/f/ gf/g/ ed/^c/ | da eg af ^cA | d>D FA d3 :: e | f/e/d/^c/ d/e/f/g/ a/g/a/f/ g/f/e/d/ | %29
 c/=B/c/d/ e/f/g/a/ g/f/e/d/ c/d/e/c/ | d/^c/d/e/ f/e/d/=c/ B/A/G/F/ G/a/ ^g | %31
 ae/f/ ed/e/ ^c=B/c/ AA, | fc/d/ cB/c/ AG/A/ Fa | ge/f/ ec/d/ cE/F/ EC | %34
 f/e/d/^c/ d/e/f/g/ ad' ^c'/d'/e'/c'/ | d'a/b/ a/g/f/e/ d4 :: fd FD cf ac' | ec GE Cc eg | %38
 fd DE FEFG | Ae ^ce AE ^CA, | fc AF cf ac' | ec EG C gec | df ^ce da/g/ f/e/d/c/ | d2 D2 d2 ag :| %44
[M:12/8] f>ef d>ef f>ga a>bc' | e>fg c>de E>FG C3/2 g/a | f>ef d>ed a>gf e>fd | %47
 ^c>de A>^GA E>DE A,3/2 a/g | f>cB A>GA F>fe f>ga | g>fg c>Bc G>FG C2 a | (ga)e (fg)d (ce)A d>e^c | %51
 d2 A F>GA D6 |: f/e/ |[M:2/2] d^cde D>f e/f/e/d/ | ec GE/F/ G/G/E/D/ C g/e/ | f d2 ef a2 d/e/ | %56
 ^c A2 E/D/ ^C A,2 a/g/ | f(F F/)E/F/G/ AF fe/f/ | g(c c/)=B/c/d/ ec gf/e/ | %59
 ab/a/ gf/e/ fg/f/ ed/^c/ | dF AA, D3 :| E | F/E/F/G/ F/E/D/^C/ D/E/F/G/ A/G/A/F/ | %63
 E/F/E/D/ C/D/E/F/ G/A/G/F/ E/F/G/E/ | F/G/F/E/ D/^C/D/E/ F/E/F/G/ A/^G/A/=B/ | %65
 ^c/=B/c/d/ e/c/B/c/ A/E/D/E/ ^C/D/E/A,/ | F/E/F/G/ A/G/A/B/ c/B/A/G/ F/G/A/B/ | %67
 c/=B/c/d/ e/d/e/f/ g/f/e/d/ c/e/f/g/ | ad/e/f e/A/ d F/G/ AA, | D8 | z8 | z8 | z8 | z8 | z8 | z8 | %76
 z8 | z8 |] %78
V:2
 z2 | z8 | z8 | z8 | z8 | z8 | z8 | z8 | z4 z2 :: z2 | z8 | z8 | z8 | z8 | z8 | z8 | z8 | %17
 z4 z2 z :: z | z8 | z8 | z8 | z8 | z8 | z8 | z8 | z4 z2 z :: z | z8 | z8 | z8 | z8 | z8 | z8 | %34
 z8 | z8 :: z8 | z8 | z8 | z8 | z8 | z8 | z8 | z8 :|[M:12/8] z12 | z12 | z12 | z12 | z12 | z12 | %50
 z12 | z12 |: z |[M:2/2] z8 | z8 | z8 | z8 | z8 | z8 | z8 | z4 z2 z :| z | z8 | z8 | z8 | z8 | z8 | %67
 z8 | z8 | z8 | D,2 D,2 D,2 D,2 | C,2 C,2 C,2 C,2 | B,,2 B,,2 B,,2 B,,2 | A,,6 G,,2 | %74
 F,,2 F,,2 F,,2 F,,2 | C,2 C,2 C,2 C,2 | D,2 G,,2 A,,4 | D,,8 |] %78

